X:1
T:This Is Merry Christmas Day
T:This Is Merry Christmas Day
T:Frederick W. Peace
T:Mabel J. Rosemon, 1912
T:Public Domain Courtesy of the Cyber Hymnal™
T:Public Domain Courtesy of the Cyber Hymnal™
C:Frederick W. Peace
Z:Public Domain
Z:Courtesy of the Cyber Hymnal™
%%score ( 1 2 ) ( 3 4 )
L:1/8
Q:1/4=105
M:6/8
K:C
V:1 treble 
V:2 treble 
V:3 bass 
V:4 bass 
V:1
 C2 D E2 F | G2 A G3 | [CE]3 [B,D][A,C][B,D] | [CE]3 [CG]2 z | [CF]2 [EG] [FA]2 [GB] | %5
w: 1.~This is mer- ry|Christ- mas Day,|All joy is a-|bound- ing;|Chil- dren join the|
w: 2.~This is mer- ry|Christ- mas Day,|Hark! joy- bells are|ring- ing;|In the steep- les|
w: 3.~This is mer- ry|Christ- mas Day,|Cease now from thy|sad- ness;|Ev- ery- one is|
 [Gc]2 [Gd] [Gc]3 | [GB]3 [^Fc][FB][FA] | [Gd]3 [Fd]2 z | [Ee]2 [Gc] [Fd]2 [Ee] | %9
w: hap- py lay,|Sweet mu- sic is|sound- ing;|Glad- dest day of|
w: swing and sway,|Good tid- ings they’re|bring- ing;|Joy and peace their|
w: bright and gay,|Come, share in the|glad- ness;|Sing for joy this|
 [Fd]2 [FA] [FA]3 | [FB]2 [Fd] [Ec]2 [FA] | [EG]2 [CE] [EG]3 | [FA]2 [FA] [FA]3 | %13
w: all the year,|Christ- mas time a-|gain is here;|Sing for joy,|
w: chim- ing tells,|Mel- low, sil- ver|throat- ed bells;|Gai- ly ring,|
w: hap- py morn,|Christ the Lord to-|day is born;|Sing to- day,|
 [D^Fc]2 [DFc] [DFc]3 | [EGe]3 [Fd][FG][Fd] | [Ec]3- [Ec]2 z || %16
w: sing for joy,|Glad Christ- mas is|here. *|
w: gai- ly ring,|Sweet sil- ver- y|bells. *|
w: sing to- day,|Our Sav- ior is|born. *|
"^Refrain" e3 [EG] c3"^Unison" [EG] | [Fc][FB][FA] [DFB]3 | d3 B3 | [FA][EG][^D^F] [EG]3 | %20
w: ||||
w: Christ- mas, hap- pi-|* est day! Christ-|mas, mer-|ry and gay! Ring|
w: ||||
"^Parts" [FA]2 [FA] [Fd]2 [FA] | [EG]2 [DG] [Gc]2 [Ge] | [Ge][Fd][Ec] [Fd]2 [FG] | [Ec]3- [Ec]2 |] %24
w: ||||
w: the joy- bells far|and near, For Christ-|mas a- gain is here.||
w: ||||
V:2
 C2 D E2 F | G2 A G3 | x6 | x6 | x6 | x6 | x6 | x6 | x6 | x6 | x6 | x6 | x6 | x6 | x6 | x6 || %16
 [EG]2 [EG]2 x4 | x6 | (F2 F) (F2 F) | x6 | x6 | x6 | x6 | x5 |] %24
V:3
 C,2 D, E,2 F, | G,2 A, G,3 | [C,G,]3 [C,F,][C,E,][C,F,] | [C,G,]3 [E,G,]2 z | %4
 [A,C]2 [G,C] [F,C]2 [F,D] | [E,C]2 [D,B,] [E,C]3 | [D,D]3 [D,D][D,D][CD] | [B,D]3 [G,B,]2 z | %8
 [C,C]2 [E,C] [D,B,]2 [C,C] | [F,A,]2 [D,D] [D,D]3 | [G,D]2 [^G,B,] [A,C]2 [F,C] | %11
 [C,C]2 [C,G,] [C,C]3 | [F,C]2 [F,C] [F,C]3 | [A,C]2 [A,C] [A,C]3 | [G,C]3 [G,B,][G,B,][G,B,] | %15
 [C,G,C]3- [C,G,C]2 z || [C,G,]3 [G,,G,]3 x2 | [D,G,]3 [G,,G,]3 | [B,,G,]3 [G,,G,]3 | %19
 [C,G,]3 [C,C]3 | [F,C]2 [F,C] [F,A,]2 [F,C] | [G,C]2 [F,B,] [E,C]2 [C,C] | %22
 [G,B,][G,B,][G,C] [G,B,]2 [G,B,] | [C,C]3- [C,C]2 |] %24
V:4
 C,2 D, E,2 F, | G,2 A, G,3 | x6 | x6 | x6 | x6 | x6 | x6 | x6 | x6 | x6 | x6 | x6 | x6 | x6 | %15
 x6 || x8 | x6 | x6 | x6 | x6 | x6 | x6 | x5 |] %24

